X:5
T:Balvenie Castle
T:aka The Doctor
R:strathspey
C:William Marshall (1781,1822)
S:1822 Collection p10
H:original title, Gollochy's Farewell, Marshall 1781. Renamed "The Doctor" in Gow's 3rd (later in The Athole).
Z:Paul Stewart Cranford (P.S.C.), <http://www.cranfordpub.com>
L:1/8
Q:244
M:C
K:Bb
B>GF>E D>CB,>d|e<c f>d c/c/c c2|c/B/_A/G/ A/G/F/E/ D>CB,>d|e<cf>d B/B/B B2:|
||B>fd>f B>fd>f|e>gd>f c/c/c c2|B>fd>f B>fd>f|e<gf>d B/B/B B2|
B>fd>f B>fd>f|e>gd>f c/c/c cg/a/|bgaf gefd|e<gf>d B/B/B B2|]

